X:61
T:The Black Haired Lass
C:F.O'Neill.
M:C|
L:1/8
K:D
ed|:"A"c2 AB cdec|"G"d2 gd BGGB|"A"{d}cBAB cdec|\
"D"dfec "A"Aced|{d}cBAB cdec|"G"d2 gd BGGB|"A"{d}cBAB cdec|"D"dfec "A"A2||
(AB)|"A"cdef "G"{a}g2 (eg)|"D"fddf "G"{a}afed|"A"cdef "G"{a}gfeg|\
"D"fdec "A"A2 (AB)|cdef "G"{a}gfeg|"D"fddf "A"e2 (fg)|\
af{a}ge fdec|"D"dfec "A"A2|]
